packages/tokens/icons/inconsistentOmnichannelExperiences/size24Px.svg

<svg viewBox="0 0 24 24" fill="none" xmlns="http://www.w3.org/2000/svg" width="1em" height="1em"><circle cx="12" cy="12" r="2.5" stroke="currentColor"/><circle cx="17.5" cy="13.5" r="1" stroke="currentColor"/><circle cx="18" cy="4" r="1.5" stroke="currentColor"/><circle cx="10.5" cy="20.5" r="1" stroke="currentColor"/><circle cx="5" cy="13" r="0.5" stroke="currentColor"/><path fill-rule="evenodd" clip-rule="evenodd" d="M6 7C6 7.55228 5.55228 8 5 8C4.44772 8 4 7.55228 4 7C4 6.44772 4.44772 6 5 6C5.55228 6 6 6.44772 6 7ZM6.12825 8.65161C5.80709 8.87142 5.41856 9 5 9C3.89543 9 3 8.10457 3 7C3 5.89543 3.89543 5 5 5C6.10457 5 7 5.89543 7 7C7 7.31661 6.92643 7.61603 6.79546 7.88211L10.5801 10.0669L10.0802 10.933L6.12825 8.65161Z" fill="currentColor"/><path fill-rule="evenodd" clip-rule="evenodd" d="M7.74637 16.7909L10.6837 13.8536L9.97657 13.1465L7.18195 15.9411C6.63498 15.3616 5.85972 15 5 15C3.34315 15 2 16.3431 2 18C2 19.6568 3.34315 21 5 21C6.65685 21 8 19.6568 8 18C8 17.5698 7.90945 17.1607 7.74637 16.7909ZM7 18C7 19.1046 6.10457 20 5 20C3.89543 20 3 19.1046 3 18C3 16.8954 3.89543 16 5 16C6.10457 16 7 16.8954 7 18Z" fill="currentColor"/><path fill-rule="evenodd" clip-rule="evenodd" d="M17.1528 17.3938L13.8889 13.3557L13.1111 13.9843L16.4328 18.0938C16.1597 18.4944 16 18.9786 16 19.5001C16 20.8808 17.1193 22.0001 18.5 22.0001C19.8807 22.0001 21 20.8808 21 19.5001C21 18.1194 19.8807 17.0001 18.5 17.0001C18.004 17.0001 17.5416 17.1446 17.1528 17.3938ZM20 19.5001C20 20.3285 19.3285 21.0001 18.5 21.0001C17.6716 21.0001 17 20.3285 17 19.5001C17 18.6717 17.6716 18.0001 18.5 18.0001C19.3285 18.0001 20 18.6717 20 19.5001Z" fill="currentColor"/><path fill-rule="evenodd" clip-rule="evenodd" d="M18.0373 8.83403L14.0373 10.8118L14.4805 11.7083L18.5772 9.68265C18.8316 9.8815 19.1519 10 19.4999 10C20.3284 10 20.9999 9.32843 20.9999 8.5C20.9999 7.67157 20.3284 7 19.4999 7C18.6715 7 17.9999 7.67157 17.9999 8.5C17.9999 8.61481 18.0128 8.72662 18.0373 8.83403ZM19.4999 8C19.7761 8 19.9999 8.22386 19.9999 8.5C19.9999 8.77614 19.7761 9 19.4999 9C19.2238 9 18.9999 8.77614 18.9999 8.5C18.9999 8.22386 19.2238 8 19.4999 8Z" fill="currentColor"/><path fill-rule="evenodd" clip-rule="evenodd" d="M12.5 4.5C12.5 4.77614 12.2761 5 12 5C11.7239 5 11.5 4.77614 11.5 4.5C11.5 4.22386 11.7239 4 12 4C12.2761 4 12.5 4.22386 12.5 4.5ZM12.5 5.91465C13.0826 5.70873 13.5 5.15311 13.5 4.5C13.5 3.67157 12.8284 3 12 3C11.1716 3 10.5 3.67157 10.5 4.5C10.5 5.15311 10.9174 5.70873 11.5 5.91465L11.5 9.5H12.5L12.5 5.91465Z" fill="currentColor"/></svg>

<svg xmlns="http://www.w3.org/2000/svg" fill="none" viewBox="0 0 24 24" width="1em" height="1em"><circle cx="12" cy="12" r="2.5" stroke="currentColor"/><circle cx="17.5" cy="13.5" r="1" stroke="currentColor"/><circle cx="18" cy="4" r="1.5" stroke="currentColor"/><circle cx="10.5" cy="20.5" r="1" stroke="currentColor"/><circle cx="5" cy="13" r=".5" stroke="currentColor"/><path fill="currentColor" fill-rule="evenodd" d="M6 7a1 1 0 1 1-2 0 1 1 0 0 1 2 0Zm.128 1.652a2 2 0 1 1 .667-.77l3.785 2.185-.5.866-3.952-2.281Zm1.618 8.138 2.938-2.936-.707-.707-2.795 2.794a3 3 0 1 0 .564.85ZM7 18a2 2 0 1 1-4 0 2 2 0 0 1 4 0Zm10.153-.606-3.264-4.038-.778.628 3.322 4.11a2.5 2.5 0 1 0 .72-.7ZM20 19.5a1.5 1.5 0 1 1-3 0 1.5 1.5 0 0 1 3 0ZM18.037 8.834l-4 1.978.443.896 4.097-2.025a1.5 1.5 0 1 0-.54-.849ZM19.5 8a.5.5 0 1 1 0 1 .5.5 0 0 1 0-1Zm-7-3.5a.5.5 0 1 1-1 0 .5.5 0 0 1 1 0Zm0 1.415a1.5 1.5 0 1 0-1 0V9.5h1V5.915Z" clip-rule="evenodd"/></svg>
